src/components/Sprite/svg/grass.svg

<?xml version="1.0" encoding="UTF-8" standalone="no"?>
<svg
   xmlns:dc="http://purl.org/dc/elements/1.1/"
   xmlns:cc="http://creativecommons.org/ns#"
   xmlns:rdf="http://www.w3.org/1999/02/22-rdf-syntax-ns#"
   xmlns:svg="http://www.w3.org/2000/svg"
   xmlns="http://www.w3.org/2000/svg"
   xmlns:sodipodi="http://sodipodi.sourceforge.net/DTD/sodipodi-0.dtd"
   xmlns:inkscape="http://www.inkscape.org/namespaces/inkscape"
   width="128"
   height="128"
   viewBox="0 0 33.866666 33.866668"
   version="1.1"
   id="svg8"
   inkscape:version="1.0 (4035a4f, 2020-05-01)"
   sodipodi:docname="grass.svg">
  <defs
     id="defs2" />
  <sodipodi:namedview
     id="base"
     pagecolor="#ffffff"
     bordercolor="#666666"
     borderopacity="1.0"
     inkscape:pageopacity="0.0"
     inkscape:pageshadow="2"
     inkscape:zoom="3.6527039"
     inkscape:cx="69.889524"
     inkscape:cy="101.15285"
     inkscape:document-units="px"
     inkscape:current-layer="layer1"
     inkscape:document-rotation="0"
     showgrid="true"
     units="px"
     inkscape:window-width="1777"
     inkscape:window-height="1102"
     inkscape:window-x="0"
     inkscape:window-y="25"
     inkscape:window-maximized="0"
     inkscape:snap-bbox="true"
     inkscape:snap-bbox-midpoints="true"
     inkscape:snap-grids="true"
     inkscape:snap-midpoints="true"
     inkscape:snap-smooth-nodes="true"
     inkscape:snap-intersection-paths="true"
     inkscape:object-paths="true"
     inkscape:snap-nodes="true"
     inkscape:snap-others="true"
     inkscape:snap-global="true"
     inkscape:bbox-paths="true"
     inkscape:bbox-nodes="true">
    <inkscape:grid
       type="xygrid"
       id="grid833"
       empspacing="4" />
    <inkscape:grid
       type="xygrid"
       id="grid835"
       spacingx="2.1166667"
       spacingy="2.1166667"
       empspacing="4"
       empcolor="#ff3f61"
       empopacity="0.25098039" />
  </sodipodi:namedview>
  <metadata
     id="metadata5">
    <rdf:RDF>
      <cc:Work
         rdf:about="">
        <dc:format>image/svg+xml</dc:format>
        <dc:type
           rdf:resource="http://purl.org/dc/dcmitype/StillImage" />
        <dc:title />
      </cc:Work>
    </rdf:RDF>
  </metadata>
  <g
     inkscape:label="Layer 1"
     inkscape:groupmode="layer"
     id="layer1">
    <path
       id="rect1625"
       style="fill:#7cb342;stroke:none;stroke-width:2.11667;stroke-linecap:round;stroke-linejoin:round;stroke-miterlimit:4;stroke-dasharray:none"
       d="M 3.175,1.0583334 H 30.691667 C 31.8643,1.0583334 32.808333,2.0023667 32.808333,3.175 V 30.691667 C 32.808333,31.8643 31.8643,32.808333 30.691667,32.808333 H 3.175 C 2.0023667,32.808333 1.0583334,31.8643 1.0583334,30.691667 V 3.175 C 1.0583334,2.0023667 2.0023667,1.0583334 3.175,1.0583334 Z" />
    <path
       style="fill:#558b2f;stroke:none;stroke-width:0.264583px;stroke-linecap:butt;stroke-linejoin:miter;stroke-opacity:1"
       d="M 8.4666666,27.516664 6.35,21.166664 9.5249999,25.399998 10.583333,19.049998 11.641666,25.399998 13.758332,21.166664 14.816666,25.399998 17.991666,22.224998 15.874999,27.516665 Z"
       id="path1638"
       sodipodi:nodetypes="cccccccccc" />
    <path
       sodipodi:nodetypes="cccccccccc"
       id="path1640"
       d="M 17.991666,14.816668 15.875,8.4666682 19.049999,12.700002 20.108333,6.3500018 21.166666,12.700002 23.283332,8.4666682 24.341666,12.700002 27.516666,9.5250022 25.399999,14.816669 Z"
       style="fill:#558b2f;stroke:none;stroke-width:0.264583px;stroke-linecap:butt;stroke-linejoin:miter;stroke-opacity:1" />
    <path
       transform="scale(0.26458334)"
       d="M 119.29102 4.7089844 C 119.74281 5.7127064 120 6.8241489 120 8 L 120 112 C 120 116.432 116.432 120 112 120 L 8 120 C 6.8241489 120 5.7127064 119.74281 4.7089844 119.29102 C 5.9601005 122.07051 8.7438513 124 12 124 L 116 124 C 120.432 124 124 120.432 124 116 L 124 12 C 124 8.7438513 122.07051 5.9601005 119.29102 4.7089844 z "
       style="fill:#689f38;stroke:none;stroke-width:8.00001;stroke-linecap:round;stroke-linejoin:round;stroke-miterlimit:4;stroke-dasharray:none"
       id="path6683" />
    <path
       transform="scale(0.26458334)"
       d="M 12 4 C 7.5680002 4 4 7.5680002 4 12 L 4 116 C 4 119.25615 5.9294931 122.0399 8.7089844 123.29102 C 8.2571849 122.28729 8 121.17585 8 120 L 8 16 C 8 11.568 11.568 8 16 8 L 120 8 C 121.17585 8 122.28729 8.2571849 123.29102 8.7089844 C 122.0399 5.9294931 119.25615 4 116 4 L 12 4 z "
       style="fill:#aed581;stroke:none;stroke-width:8.00001;stroke-linecap:round;stroke-linejoin:round;stroke-miterlimit:4;stroke-dasharray:none"
       id="path6677" />
  </g>
</svg>

<svg xmlns="http://www.w3.org/2000/svg" width="128" height="128" viewBox="0 0 33.867 33.867">
    <path d="M3.175 1.058h27.517c1.172 0 2.116.944 2.116 2.117v27.517a2.112 2.112 0 01-2.116 2.116H3.175a2.112 2.112 0 01-2.117-2.116V3.175c0-1.173.944-2.117 2.117-2.117z" fill="#7cb342"/>
    <path d="M8.467 27.517l-2.117-6.35L9.525 25.4l1.058-6.35 1.059 6.35 2.116-4.233 1.059 4.233 3.175-3.175-2.117 5.292zm9.525-12.7l-2.117-6.35L19.05 12.7l1.058-6.35 1.059 6.35 2.116-4.233 1.059 4.233 3.175-3.175-2.117 5.292z" fill="#558b2f"/>
    <path d="M31.562 1.246c.12.265.188.56.188.87v27.517a2.112 2.112 0 01-2.117 2.117H2.117c-.311 0-.606-.068-.871-.188a2.11 2.11 0 001.929 1.246h27.517a2.112 2.112 0 002.116-2.116V3.175a2.11 2.11 0 00-1.246-1.93z" fill="#689f38"/>
    <path d="M3.175 1.058a2.112 2.112 0 00-2.117 2.117v27.517c0 .861.51 1.598 1.246 1.929a2.115 2.115 0 01-.187-.871V4.233c0-1.172.944-2.116 2.116-2.116H31.75c.311 0 .605.068.87.187a2.11 2.11 0 00-1.928-1.246H3.175z" fill="#aed581"/>
</svg>
